X: 30363
M: 4/4
L: 1/8
K: G
|: G>A |\
|: d>c |\
|: z2 |\
g2g>d g2g>d | g>fg>a b2b>a | g>ag>d g>bg>d | c>Bc>d e>dc>B |\
g>gg>d g>gg>d | g>fg>a b2b>a | g>bg>d g>bg>d | B>AG>F G2 :|


